!!! OTL: Berkowitz162
!!! Chapter: 1
!!! Section: I
!!! Page: 36
!!! Mode: 
!!! Encoder: DJB
**kern
*staff1
*I"Piano
=1-
*clefG2
*k[f#c#]
*b:
*M2/4
8b/L
8f#/J
8dd\L
8b\J
=2
8a#\L
8cc#\J
4f#/
=3
8a#\L
8cc#\J
8f#\L
8ee\J
=4
4dd\
4b\
=5
8g/L
8b/J
8e/L
8g/J
=6
8f#/L
8b/J
8d/L
8b/J
=7
8a#/L
8f#/J
8cc#/L
8a#/J
=8
8ee\L
16dd\L
16cc#\JJ
4b\
==
*-
